resources/help/button_start.svg

<?xml version="1.0" encoding="UTF-8"?>
<svg width="88" height="32" version="1.1" viewBox="0 0 88 32" xmlns="http://www.w3.org/2000/svg">
 <path id="outline" d="m2 16.0a11.0 11.0 0 0 1 11.0-11.0h62.0a11.0 11.0 0 0 1 11.0 11.0 11.0 11.0 0 0 1 -11.0 11.0h-62.0a11.0 11.0 0 0 1 -11.0 -11.0z" fill="none" stroke="#fff" stroke-width="3"/>
 <g transform="translate(7.344,-9.156) scale(1.15)"><g id="label_start" fill="#fff">
  <path d="m11.02832 26.665543q0.517578 0 0.791016-0.341797 0.273437-0.351563 0.273437-0.84961 0-0.507812-0.146484-0.859375-0.146484-0.361328-0.429687-0.664062-0.283204-0.302735-0.53711-0.498047-0.24414-0.205078-0.615234-0.46875-1.2792971-0.898438-1.8945314-1.894531-0.6054688-0.996094-0.6054688-2.353516 0-1.875 1.1230469-2.96875 1.1328123-1.103516 2.9199223-1.103516 1.787109 0 3.52539 1.044922l-1.044922 2.509766q-0.05859-0.0293-0.302734-0.15625-0.244141-0.136719-0.3125-0.166016-0.06836-0.03906-0.283203-0.136718-0.214844-0.107422-0.302735-0.146485l-0.263671-0.09766q-0.429688-0.166016-0.830079-0.166016-0.390625 0-0.625 0.361328-0.224609 0.351563-0.224609 0.859375 0 0.498047 0.126953 0.830079 0.126953 0.332031 0.390625 0.615234 0.449219 0.46875 1.103516 0.898437 1.298828 0.878907 1.953125 1.855469 0.664062 0.966797 0.664062 2.333985 0 2.041015-1.09375 3.134765-1.09375 1.083985-3.115234 1.083985-2.0117188 0-3.5156251-0.84961v-3.203125q2.1289063 1.396485 3.2714841 1.396485z"/>
  <path d="m25.149414 17.544449h-2.65625v11.591797h-3.398437v-11.591797h-2.65625v-2.685547h8.710937z"/>
  <path d="m36.760742 29.136246h-3.4375l-0.791015-3.496094h-2.88086l-0.791015 3.496094h-3.427735l3.544922-14.335938h4.228516zm-4.814453-6.201172-0.849609-3.759766q-0.15625 0.751953-0.830078 3.759766z"/>
  <path d="m38.108398 14.858902h3.789063q2.353516 0 3.476562 1.064453 1.123047 1.064453 1.123047 3.261719 0 2.548828-1.748047 3.701172l2.734375 6.25h-3.603515l-2.1875-5.390625h-0.175781v5.390625h-3.408204zm3.408204 2.646484v3.603516h0.253906q0.673828 0 0.976562-0.458984 0.3125-0.458985 0.3125-1.386719 0-0.9375-0.322265-1.347656-0.3125-0.410157-0.986328-0.410157z"/>
  <path d="m56.243164 17.544449h-2.65625v11.591797h-3.398437v-11.591797h-2.65625v-2.685547h8.710937z"/>
 </g></g>
</svg>

<?xml version="1.0" encoding="UTF-8" standalone="no"?>
<svg
   width="99"
   height="32"
   viewBox="0 0 99 32"
   version="1.1"
   id="svg1"
   xmlns="http://www.w3.org/2000/svg"
   xmlns:svg="http://www.w3.org/2000/svg">
  <defs
     id="defs1" />
  <path
     id="pillshape" fill="#fff"
     d="M 16 2 A 14 14 0 0 0 2 16 A 14 14 0 0 0 7.7578125 27.25 L 7.7578125 25.269531 C 9.1770834 26.200521 10.265626 26.666016 11.027344 26.666016 C 11.372396 26.666016 11.63802 26.552084 11.820312 26.324219 C 12.002604 26.089844 12.09375 25.806641 12.09375 25.474609 C 12.09375 25.136068 12.044922 24.84961 11.947266 24.615234 C 11.849611 24.374349 11.70638 24.152995 11.517578 23.951172 C 11.328775 23.749349 11.147787 23.583333 10.978516 23.453125 C 10.815756 23.316407 10.610677 23.160157 10.363281 22.984375 C 9.5104163 22.385417 8.8808593 21.753906 8.4707031 21.089844 C 8.0670572 20.425782 7.8632812 19.641276 7.8632812 18.736328 C 7.8632812 17.486328 8.2376301 16.496744 8.9863281 15.767578 C 9.7415363 15.0319 10.716796 14.664062 11.908203 14.664062 C 13.099609 14.664062 14.272787 15.01237 15.431641 15.708984 L 14.386719 18.21875 C 14.347659 18.199217 14.2487 18.147134 14.085938 18.0625 C 13.923177 17.971354 13.819011 17.916016 13.773438 17.896484 C 13.727865 17.870444 13.631509 17.824871 13.488281 17.759766 C 13.345051 17.688151 13.246094 17.639323 13.1875 17.613281 L 12.923828 17.515625 C 12.637369 17.404948 12.360677 17.349609 12.09375 17.349609 C 11.833333 17.349609 11.625 17.470052 11.46875 17.710938 C 11.31901 17.945312 11.244142 18.23177 11.244141 18.570312 C 11.244141 18.902344 11.284506 19.179036 11.369141 19.400391 C 11.453776 19.621745 11.583985 19.826823 11.759766 20.015625 C 12.059245 20.328125 12.427083 20.627605 12.863281 20.914062 C 13.729166 21.500001 14.380208 22.11849 14.816406 22.769531 C 15.259114 23.414062 15.480469 24.192057 15.480469 25.103516 C 15.480469 26.464193 15.115886 27.509114 14.386719 28.238281 C 13.769469 28.850021 12.92937 29.199298 11.869141 29.292969 A 14 14 0 0 0 16 30 L 83 30 A 14 14 0 0 0 97 16 A 14 14 0 0 0 83 2 L 16 2 z M 28.978516 14.800781 L 33.205078 14.800781 L 36.759766 29.136719 L 33.322266 29.136719 L 32.533203 25.640625 L 29.650391 25.640625 L 28.861328 29.136719 L 25.431641 29.136719 L 28.978516 14.800781 z M 16.439453 14.859375 L 25.150391 14.859375 L 25.150391 17.544922 L 22.494141 17.544922 L 22.494141 29.136719 L 19.095703 29.136719 L 19.095703 17.544922 L 16.439453 17.544922 L 16.439453 14.859375 z M 38.109375 14.859375 L 41.898438 14.859375 C 43.467449 14.859375 44.626302 15.214192 45.375 15.923828 C 46.123698 16.633463 46.496094 17.720703 46.496094 19.185547 C 46.496094 20.884766 45.915364 22.11849 44.75 22.886719 L 47.484375 29.136719 L 43.878906 29.136719 L 41.691406 23.746094 L 41.517578 23.746094 L 41.517578 29.136719 L 38.109375 29.136719 L 38.109375 14.859375 z M 47.533203 14.859375 L 56.244141 14.859375 L 56.244141 17.544922 L 53.587891 17.544922 L 53.587891 29.136719 L 50.189453 29.136719 L 50.189453 17.544922 L 47.533203 17.544922 L 47.533203 14.859375 z M 41.517578 17.505859 L 41.517578 21.109375 L 41.769531 21.109375 C 42.218749 21.109375 42.544272 20.95638 42.746094 20.650391 C 42.954428 20.344401 43.058594 19.882161 43.058594 19.263672 C 43.058594 18.638672 42.951172 18.189453 42.736328 17.916016 C 42.527995 17.642578 42.201172 17.505859 41.751953 17.505859 L 41.517578 17.505859 z M 31.095703 19.175781 C 30.991537 19.677083 30.716797 20.930338 30.267578 22.935547 L 31.947266 22.935547 L 31.095703 19.175781 z " />
</svg>
